X:320
T:Kazova Halayi
T:Dance from Kazova
Z:Jack Campin, http://www.campin.me.uk/
F:Jack Campin's Nine-Note Tunebook
% last edit 03-02-2013
S:T. Hakki Karahasan, Yoresel Turk Halk Oyunlari
N:the B is between a flat and a natural
M:2/4
L:1/8
Q:1/4=124
K:DPhr
  DC     FE    |FE/F/ E/F/D   |  DD      E<D      |E<D DA |
  DC     FE    |FE/F/ E/F/D   |  DD      E<D      |E<D D2||
|:c=B/c/ BG    |A2    AG      |  c=B/c/  BG       |A2  z2:|
|:B/c/d  dc/=B/|A2    AG      | =B/c/d   d(3c/B/c/|A2  z2:|
|:E/F/G  GF/E/ |D2    A2      |  E/F/G   GE/G/    |F2  z2 |
  E/F/G  GF/E/ |D/E/C F/E/F/G/|(3F/E/F/D D2       |D4    :|

